cfgov/unprocessed/apps/teachers-digital-platform/img/icon-one.svg

<svg height="20" viewBox="0 0 20 20" width="20" xmlns="http://www.w3.org/2000/svg"><path d="m132.579263 1624.31547h-1.669956l-2.54057 2.03404.948871 1.41544 1.439376-1.21432v6.1859h1.822279zm8.421053 3.68346c0 5.52417-4.476248 10.00075-10 10.00075-5.522254 0-10-4.47658-10-10.00075 0-5.52266 4.477746-9.99925 10-9.99925 5.523752 0 10 4.47659 10 9.99925z" fill="#1e9642" fill-rule="evenodd" transform="translate(-121 -1618)"/></svg>

<?xml version="1.0" encoding="UTF-8"?>
<svg width="20px" height="20px" viewBox="0 0 20 20" version="1.1" xmlns="http://www.w3.org/2000/svg" xmlns:xlink="http://www.w3.org/1999/xlink">
    <title>Path</title>
    <g id="Designs---r3.0" stroke="none" stroke-width="1" fill="none" fill-rule="evenodd">
        <g id="Design:-Results-page---3.0" transform="translate(-121.000000, -1618.000000)" fill="#1E9642">
            <path d="M132.579263,1624.31547 L130.909307,1624.31547 L128.368737,1626.34951 L129.317608,1627.76495 L130.756984,1626.55063 L130.756984,1632.73653 L132.579263,1632.73653 L132.579263,1624.31547 Z M141.000316,1627.99893 C141.000316,1633.5231 136.524068,1637.99968 131.000316,1637.99968 C125.478062,1637.99968 121.000316,1633.5231 121.000316,1627.99893 C121.000316,1622.47627 125.478062,1617.99968 131.000316,1617.99968 C136.524068,1617.99968 141.000316,1622.47627 141.000316,1627.99893 L141.000316,1627.99893 Z" id="Fill-350"></path>
        </g>
    </g>
</svg>
